X: 26899
T: Minstrel's Fancy, The
R: hornpipe
M: 4/4
K: Dmajor
|:dB|AFAd BGdB|AFAd f2 fe|dfgf edBc|dBAG FEDF|
AFAd BGdB|AFAd f2 fe|dfgf edBc|dgfe d2:|
|:ef|g2 ge cabc|dcde f2 ef|g2 ge cabc|dBAG FEDF|
AFAd BGdB|AFAd f2 fe|dfgf edBc|dgfe d2:|

